X:1
T:Wassail 1
C:Traditional
M:6/8
L:1/8
Q:3/8=110
K:G
G | G G d d c B | B B B A A G | G A B c d e | d d d c B A | G G d d c B | B B B A A G | G2 A2 B2 | G6 |]
w: Was- | sail, was-sail, all o-ver | the town, Our toast it is | white and our ale it is | brown; Our bowl it is made | of the white ma-ple tree, | With the was-sail-ing bowl, | we'll drink to | thee...
